X:3075
T:Clare polka #1
S:Han Speek, Ir-Trad, 9/97
R:Polka
S:Conor Keane
C:Trad. arr. Conor Keane
Z:This was one of the tunes Conor played for his class at the
Z:Willie Clancy Summer School, July 1997.
Z:He plays it as a set together with the next polka.
M:2/4
L:1/8
K:G
D |: GA Bc | d2 Bd | cd/2c/2 BA | G/2A/2B D2 |
GA Bc | d2 Bd | cd/2c/2 BA |1 G2-G D :|2 G2-G z |
|: gd ed | gd ed | BG gd | BG ed |
gd ed | gd BG | eg fa | g2-g z :|


